X:48
T:Connaught Heifer
Z: id:dc-reel-43
M:C
L:1/8
K:D Mixolydian
F3G A2BG|A2BG AGFD|F3G A2GF|DGG2 cAAG:|!
fde^c d2=cA|A2BG ABde|fdd2 edcA|BGG2 AGFD:|!